assets/Bookmark tabs/Flat/bookmark_tabs_flat.svg

<svg width="32" height="32" viewBox="0 0 32 32" fill="none" xmlns="http://www.w3.org/2000/svg">
<path d="M4.5 1C3.11929 1 2 2.11929 2 3.5V26.5C2 27.8807 3.11929 29 4.5 29H7V29.5C7 30.3284 7.67157 31 8.5 31H25.5C26.3284 31 27 30.3284 27 29.5V6.5C27 5.67157 26.3284 5 25.5 5H20.9142L17.6464 1.73223C17.1776 1.26339 16.5417 1 15.8787 1H4.5Z" fill="#B4ACBC"/>
<path d="M3 3.5C3 2.67157 3.67157 2 4.5 2H15.8787C16.2765 2 16.658 2.15804 16.9393 2.43934L22.5607 8.06066C22.842 8.34196 23 8.7235 23 9.12132V26.5C23 27.3284 22.3284 28 21.5 28H4.5C3.67157 28 3 27.3284 3 26.5V3.5Z" fill="#F3EEF8"/>
<path d="M6.5 11C6.22386 11 6 11.2239 6 11.5C6 11.7761 6.22386 12 6.5 12H19.5C19.7761 12 20 11.7761 20 11.5C20 11.2239 19.7761 11 19.5 11H6.5ZM6.5 14C6.22386 14 6 14.2239 6 14.5C6 14.7761 6.22386 15 6.5 15H19.5C19.7761 15 20 14.7761 20 14.5C20 14.2239 19.7761 14 19.5 14H6.5ZM6 17.5C6 17.2239 6.22386 17 6.5 17H19.5C19.7761 17 20 17.2239 20 17.5C20 17.7761 19.7761 18 19.5 18H6.5C6.22386 18 6 17.7761 6 17.5ZM6.5 20C6.22386 20 6 20.2239 6 20.5C6 20.7761 6.22386 21 6.5 21H14.5C14.7761 21 15 20.7761 15 20.5C15 20.2239 14.7761 20 14.5 20H6.5Z" fill="#998EA4"/>
<path d="M16 2.00488C16.3534 2.03355 16.6868 2.18674 16.9393 2.43931L22.5607 8.06063C22.8132 8.3132 22.9664 8.64656 22.9951 8.99997H17.5C16.6716 8.99997 16 8.3284 16 7.49997V2.00488Z" fill="#CDC4D6"/>
<path d="M22.3606 13.1177C22.4507 13.0417 22.5648 13 22.6828 13H25.5002C25.7763 13 26.0002 13.2239 26.0002 13.5V15.5C26.0002 15.7761 25.7763 16 25.5002 16H22.6828C22.5648 16 22.4507 15.9583 22.3606 15.8823L21.1739 14.8823C20.9368 14.6826 20.9368 14.3174 21.1739 14.1177L22.3606 13.1177Z" fill="#F70A8D"/>
<path d="M25.3606 20.1177C25.4507 20.0417 25.5648 20 25.6828 20H28.5002C28.7763 20 29.0002 20.2239 29.0002 20.5V22.5C29.0002 22.7761 28.7763 23 28.5002 23H25.6828C25.5648 23 25.4507 22.9583 25.3606 22.8823L24.1739 21.8823C23.9368 21.6826 23.9368 21.3174 24.1739 21.1177L25.3606 20.1177Z" fill="#F9C23C"/>
</svg>

<svg xmlns="http://www.w3.org/2000/svg" width="32" height="32" fill="none"><path fill="#B4ACBC" d="M4.5 1A2.5 2.5 0 0 0 2 3.5v23A2.5 2.5 0 0 0 4.5 29H7v.5A1.5 1.5 0 0 0 8.5 31h17a1.5 1.5 0 0 0 1.5-1.5v-23A1.5 1.5 0 0 0 25.5 5h-4.586l-3.268-3.268A2.5 2.5 0 0 0 15.88 1H4.5Z"/><path fill="#F3EEF8" d="M3 3.5A1.5 1.5 0 0 1 4.5 2h11.379a1.5 1.5 0 0 1 1.06.44l5.622 5.62A1.5 1.5 0 0 1 23 9.122V26.5a1.5 1.5 0 0 1-1.5 1.5h-17A1.5 1.5 0 0 1 3 26.5v-23Z"/><path fill="#998EA4" d="M6.5 11a.5.5 0 0 0 0 1h13a.5.5 0 0 0 0-1h-13Zm0 3a.5.5 0 0 0 0 1h13a.5.5 0 0 0 0-1h-13ZM6 17.5a.5.5 0 0 1 .5-.5h13a.5.5 0 0 1 0 1h-13a.5.5 0 0 1-.5-.5Zm.5 2.5a.5.5 0 0 0 0 1h8a.5.5 0 0 0 0-1h-8Z"/><path fill="#CDC4D6" d="M16 2.005a1.5 1.5 0 0 1 .94.434l5.62 5.622a1.5 1.5 0 0 1 .435.939H17.5A1.5 1.5 0 0 1 16 7.5V2.005Z"/><path fill="#F70A8D" d="M22.36 13.118a.5.5 0 0 1 .323-.118H25.5a.5.5 0 0 1 .5.5v2a.5.5 0 0 1-.5.5h-2.817a.5.5 0 0 1-.322-.118l-1.187-1a.5.5 0 0 1 0-.764l1.187-1Z"/><path fill="#F9C23C" d="M25.36 20.118a.5.5 0 0 1 .323-.118H28.5a.5.5 0 0 1 .5.5v2a.5.5 0 0 1-.5.5h-2.817a.5.5 0 0 1-.322-.118l-1.187-1a.5.5 0 0 1 0-.764l1.187-1Z"/></svg>
